X:886
L:1/8
M:6/8
K:D
 A | A>BA F2 G | A2 d d2 c | B>cd g2 f | (f3 e2) A | ABA F2 G | A2 d d2 c | Bed cBc | d2 f d2 :: 
 (B/c/) | efe c2 A | dcd fed | cea cea | gfe dcB | ABA F2 G | A2 d d2 c | Bed cBc | d2 f d2 :|

